X: 1
T: the Quiet Man
C: Jim Sutherland
R: strathspey
Z: 2013 John Chambers <jc:trillian.mit.edu>
B: Christine Martin "Ho-Ro-Gheallaidh" "Session Tunes for Scottish Fiddlers" v.3 2008
N: (and from the playing of friends in the Boston area)
M: C
L: 1/8
K: Dm
|:\
"Dm"D>F E<D A,2 (3A,B,=B, | "C"C2 E>D C>E G<E |\
"Dm"F>D "C"E>C "Bb"D<d d>B | "Am"(3ABA (3GFE (3FED (3EDC |
"Dm"D>F E<D A,2 (3A,B,=B, | "C"C2 E>D C>E G<E |\
"Dm"F>D "C"E>C "Bb"D<d d>B | "Am"(3ABA (3GFE [1 "D"F<D D2 :|2 "Dm"F<D D>^c ||
|:\
"Dm"d2 f>e d>a f<d | "C"c2 G>A E<C C>A |\
"Dm"d2 f>e (3dfa (3fed | "Am"(3aba (3efg "Dm"(3fed (3ed^c |
"Dm"d2 f>e d>a f<d | "C"c2 G>A E<C C>A |\
"Dm"(3DEF "C"(3EFG "Bb"(3FGA (3GAB | "Am"(3ABA (3GFE [1 "D"(3FED "Am"(3EDC :|2 "Dm"F<D D2 |]
